media/conditionalarray.svg

<svg width="370" height="58" xmlns="http://www.w3.org/2000/svg" xmlns:xlink="http://www.w3.org/1999/xlink" overflow="hidden"><defs><clipPath id="clip0"><path d="M463 454 833 454 833 512 463 512Z" fill-rule="evenodd" clip-rule="evenodd"/></clipPath><linearGradient x1="533.727" y1="466.109" x2="533.727" y2="491.709" gradientUnits="userSpaceOnUse" spreadMethod="reflect" id="fill1"><stop offset="0" stop-color="#FFFFFF"/><stop offset="1" stop-color="#FFFFFF"/></linearGradient><linearGradient x1="718.528" y1="466.109" x2="718.528" y2="491.709" gradientUnits="userSpaceOnUse" spreadMethod="reflect" id="fill2"><stop offset="0" stop-color="#FFFFFF"/><stop offset="1" stop-color="#FFFFFF"/></linearGradient></defs><g clip-path="url(#clip0)" transform="translate(-463 -454)"><rect x="464" y="462" width="140" height="34" fill="#D73B01"/><path d="M542.52 477.778C541.727 477.778 541.054 478.062 540.5 478.629 539.946 479.197 539.605 479.938 539.475 480.854L545.145 480.854C545.138 479.884 544.904 479.128 544.443 478.588 543.981 478.048 543.34 477.778 542.52 477.778ZM525.361 477.778C524.383 477.778 523.597 478.118 523.003 478.798 522.408 479.479 522.11 480.331 522.11 481.357L522.11 482.823C522.11 483.691 522.392 484.428 522.956 485.033 523.52 485.638 524.236 485.94 525.105 485.94 526.123 485.94 526.921 485.551 527.499 484.771 528.076 483.992 528.365 482.909 528.365 481.521 528.365 480.352 528.095 479.436 527.555 478.773 527.015 478.11 526.284 477.778 525.361 477.778ZM533.429 476.609 535.11 476.609 535.11 486.668C535.11 488.391 534.763 489.719 534.07 490.652 533.376 491.585 532.383 492.052 531.091 492.052 530.612 492.052 530.148 491.942 529.696 491.723L529.696 490.155C530.202 490.462 530.681 490.616 531.132 490.616 532.663 490.616 533.429 489.392 533.429 486.945ZM554.166 476.363C555.089 476.363 555.902 476.534 556.607 476.876L556.607 478.599C555.827 478.052 554.993 477.778 554.105 477.778 553.031 477.778 552.151 478.163 551.464 478.932 550.777 479.701 550.434 480.711 550.434 481.962 550.434 483.192 550.757 484.163 551.403 484.874 552.049 485.585 552.915 485.94 554.002 485.94 554.918 485.94 555.779 485.636 556.586 485.028L556.586 486.627C555.779 487.113 554.822 487.355 553.715 487.355 552.218 487.355 551.01 486.868 550.09 485.894 549.171 484.92 548.711 483.657 548.711 482.105 548.711 480.376 549.207 478.986 550.198 477.937 551.189 476.888 552.512 476.363 554.166 476.363ZM542.551 476.363C543.925 476.363 544.988 476.807 545.74 477.696 546.492 478.585 546.868 479.819 546.868 481.398L546.868 482.28 539.454 482.28C539.482 483.449 539.796 484.351 540.398 484.987 540.999 485.622 541.826 485.94 542.879 485.94 544.062 485.94 545.148 485.551 546.14 484.771L546.14 486.35C545.217 487.02 543.997 487.355 542.479 487.355 540.996 487.355 539.83 486.879 538.982 485.925 538.135 484.971 537.711 483.63 537.711 481.9 537.711 480.266 538.174 478.935 539.1 477.906 540.027 476.878 541.177 476.363 542.551 476.363ZM510.704 473.718C509.159 473.718 507.905 474.275 506.941 475.389 505.977 476.503 505.495 477.966 505.495 479.778 505.495 481.589 505.965 483.047 506.905 484.151 507.845 485.255 509.07 485.807 510.581 485.807 512.194 485.807 513.466 485.281 514.396 484.228 515.325 483.175 515.79 481.702 515.79 479.808 515.79 477.867 515.339 476.367 514.437 475.307 513.534 474.247 512.29 473.718 510.704 473.718ZM561.654 473.502 561.654 476.609 564.299 476.609 564.299 478.045 561.654 478.045 561.654 483.961C561.654 484.665 561.773 485.168 562.013 485.469 562.252 485.769 562.648 485.92 563.202 485.92 563.626 485.92 563.992 485.804 564.299 485.571L564.299 487.007C563.903 487.225 563.38 487.335 562.73 487.335 560.892 487.335 559.972 486.309 559.972 484.259L559.972 478.045 558.168 478.045 558.168 476.609 559.972 476.609 559.972 474.046ZM510.827 472.159C512.857 472.159 514.493 472.843 515.734 474.21 516.974 475.577 517.595 477.365 517.595 479.573 517.595 481.972 516.959 483.869 515.688 485.264 514.416 486.658 512.714 487.355 510.581 487.355 508.496 487.355 506.826 486.668 505.572 485.294 504.318 483.92 503.69 482.133 503.69 479.932 503.69 477.566 504.33 475.68 505.608 474.271 506.886 472.863 508.626 472.159 510.827 472.159ZM534.29 471.759C534.598 471.759 534.859 471.863 535.075 472.072 535.29 472.28 535.398 472.542 535.398 472.856 535.398 473.157 535.29 473.413 535.075 473.625 534.859 473.837 534.598 473.943 534.29 473.943 533.989 473.943 533.733 473.841 533.521 473.636 533.309 473.431 533.203 473.171 533.203 472.856 533.203 472.542 533.309 472.28 533.521 472.072 533.733 471.863 533.989 471.759 534.29 471.759ZM520.429 471.564 522.11 471.564 522.11 478.455 522.151 478.455C522.979 477.06 524.189 476.363 525.781 476.363 527.128 476.363 528.182 476.833 528.945 477.773 529.707 478.713 530.088 479.973 530.088 481.552 530.088 483.308 529.661 484.715 528.806 485.771 527.952 486.827 526.783 487.355 525.299 487.355 523.912 487.355 522.862 486.767 522.151 485.592L522.11 485.592 522.11 487.109 520.429 487.109Z" fill="url(#fill1)" fill-rule="evenodd"/><text fill="#000000" fill-opacity="0" font-family="Arial,Arial_MSFontService,sans-serif" font-size="20.4873" x="503.69" y="489.491">Object</text><rect x="648" y="462" width="141" height="34" fill="#107C10"/><path d="M728.738 477.778C727.945 477.778 727.272 478.062 726.718 478.629 726.164 479.197 725.822 479.938 725.693 480.854L731.363 480.854C731.356 479.884 731.122 479.128 730.661 478.588 730.199 478.048 729.558 477.778 728.738 477.778ZM716.953 477.778C715.928 477.778 715.121 478.154 714.533 478.906 713.945 479.658 713.651 480.697 713.651 482.023 713.651 483.233 713.933 484.189 714.497 484.889 715.061 485.59 715.818 485.94 716.769 485.94 717.705 485.94 718.466 485.602 719.05 484.925 719.635 484.248 719.927 483.394 719.927 482.362L719.927 480.813C719.927 479.966 719.647 479.248 719.086 478.66 718.526 478.072 717.815 477.778 716.953 477.778ZM734.365 476.609 736.323 476.609 738.354 480.198C738.504 480.465 738.651 480.738 738.795 481.018L738.836 481.018 741.461 476.609 743.317 476.609 739.789 481.921 743.255 487.109 741.297 487.109 739.235 483.705C739.106 483.493 738.952 483.226 738.774 482.905L738.733 482.905C738.699 482.967 738.538 483.233 738.251 483.705L736.149 487.109 734.211 487.109 737.79 481.962ZM728.769 476.363C730.143 476.363 731.206 476.807 731.958 477.696 732.71 478.585 733.086 479.819 733.086 481.398L733.086 482.28 725.672 482.28C725.699 483.449 726.014 484.351 726.615 484.987 727.217 485.622 728.044 485.94 729.097 485.94 730.279 485.94 731.366 485.551 732.358 484.771L732.358 486.35C731.435 487.02 730.214 487.355 728.697 487.355 727.214 487.355 726.048 486.879 725.2 485.925 724.353 484.971 723.929 483.63 723.929 481.9 723.929 480.266 724.392 478.935 725.318 477.906 726.245 476.878 727.395 476.363 728.769 476.363ZM705.815 476.363C706.963 476.363 707.841 476.734 708.45 477.476 709.058 478.217 709.362 479.289 709.362 480.69L709.362 487.109 707.681 487.109 707.681 481.121C707.681 478.892 706.867 477.778 705.24 477.778 704.4 477.778 703.704 478.094 703.154 478.727 702.603 479.359 702.328 480.157 702.328 481.121L702.328 487.109 700.647 487.109 700.647 476.609 702.328 476.609 702.328 478.352 702.369 478.352C703.162 477.026 704.311 476.363 705.815 476.363ZM694.872 472.405 696.595 472.405 696.595 487.109 694.872 487.109ZM719.927 471.564 721.609 471.564 721.609 487.109 719.927 487.109 719.927 485.325 719.886 485.325C719.107 486.679 717.903 487.355 716.276 487.355 714.957 487.355 713.903 486.885 713.113 485.945 712.324 485.005 711.929 483.725 711.929 482.105 711.929 480.369 712.366 478.978 713.241 477.932 714.116 476.886 715.282 476.363 716.738 476.363 718.18 476.363 719.23 476.931 719.886 478.065L719.927 478.065Z" fill="url(#fill2)" fill-rule="evenodd"/><text fill="#000000" fill-opacity="0" font-family="Arial,Arial_MSFontService,sans-serif" font-size="15.791" x="694.872" y="485.381">Index</text><text fill="#1C6982" font-family="Segoe UI,Segoe UI_MSFontService,sans-serif" font-weight="700" font-size="27" transform="translate(615.377 489)">?[<tspan x="190.635" y="0">]</tspan></text></g></svg>

<svg xmlns="http://www.w3.org/2000/svg" overflow="hidden" viewBox="0 0 370 58">
  <defs/>
  <defs>
    <linearGradient id="b" x1="533.7" x2="533.7" y1="466.1" y2="491.7" gradientUnits="userSpaceOnUse" spreadMethod="reflect">
      <stop offset="0" stop-color="#FFF"/>
      <stop offset="1" stop-color="#FFF"/>
    </linearGradient>
    <linearGradient id="c" x1="718.5" x2="718.5" y1="466.1" y2="491.7" gradientUnits="userSpaceOnUse" spreadMethod="reflect">
      <stop offset="0" stop-color="#FFF"/>
      <stop offset="1" stop-color="#FFF"/>
    </linearGradient>
    <clipPath id="a">
      <path fill-rule="evenodd" d="M463 454h370v58H463z" clip-rule="evenodd"/>
    </clipPath>
  </defs>
  <g clip-path="url(#a)" transform="translate(-463 -454)">
    <path fill="#D73B01" d="M464 462h140v34H464z"/>
    <path fill="url(#b)" fill-rule="evenodd" d="M542.5 477.8c-.8 0-1.4.3-2 .8-.6.6-.9 1.3-1 2.3h5.6c0-1-.2-1.8-.7-2.3-.4-.6-1-.8-1.9-.8zm-17.1 0a3 3 0 00-2.4 1c-.6.7-.9 1.5-.9 2.6v1.4c0 .9.3 1.6.9 2.2.5.6 1.2 1 2.1 1 1 0 1.8-.4 2.4-1.2.6-.8.9-1.9.9-3.3 0-1.1-.3-2-.8-2.7-.6-.7-1.3-1-2.2-1zm8-1.2h1.7v10c0 1.8-.3 3.1-1 4-.7 1-1.7 1.5-3 1.5-.5 0-1-.2-1.4-.4v-1.5c.5.3 1 .4 1.4.4 1.6 0 2.3-1.2 2.3-3.7zm20.8-.2c.9 0 1.7.1 2.4.5v1.7c-.8-.5-1.6-.8-2.5-.8-1 0-2 .4-2.6 1.1-.7.8-1 1.8-1 3 0 1.3.3 2.3.9 3 .6.7 1.5 1 2.6 1 1 0 1.8-.3 2.6-.9v1.6c-.8.5-1.8.8-2.9.8-1.5 0-2.7-.5-3.6-1.5-1-1-1.4-2.2-1.4-3.8 0-1.7.5-3.1 1.5-4.2 1-1 2.3-1.5 4-1.5zm-11.6 0a4 4 0 013.1 1.3c.8.9 1.2 2.1 1.2 3.7v.9h-7.4c0 1.1.3 2 .9 2.7.6.6 1.4 1 2.5 1 1.2 0 2.2-.4 3.2-1.2v1.6a6 6 0 01-3.6 1c-1.5 0-2.7-.5-3.5-1.5-.9-1-1.3-2.3-1.3-4 0-1.6.5-3 1.4-4 1-1 2-1.5 3.5-1.5zm-31.9-2.7c-1.5 0-2.8.6-3.8 1.7a6.5 6.5 0 00-1.4 4.4c0 1.8.5 3.2 1.4 4.4 1 1 2.2 1.6 3.7 1.6 1.6 0 2.9-.5 3.8-1.6 1-1 1.4-2.5 1.4-4.4 0-2-.5-3.4-1.4-4.5-.9-1-2.1-1.6-3.7-1.6zm51-.2v3.1h2.6v1.4h-2.6v6c0 .7 0 1.2.3 1.5.3.3.6.4 1.2.4.4 0 .8-.1 1.1-.3v1.4c-.4.2-1 .3-1.6.3-1.8 0-2.7-1-2.7-3V478h-1.8v-1.4h1.8V474zm-50.9-1.3c2 0 3.7.6 5 2a7.7 7.7 0 011.8 5.4c0 2.4-.6 4.3-2 5.7-1.2 1.4-2.9 2-5 2s-3.8-.6-5-2a7.6 7.6 0 01-2-5.4c0-2.3.7-4.2 2-5.6 1.3-1.4 3-2.1 5.2-2.1zm23.5-.4a1 1 0 011.1 1c0 .4-.1.6-.3.8a1 1 0 01-.8.3 1 1 0 01-1.1-1c0-.4.1-.6.3-.8.2-.2.5-.3.8-.3zm-13.9-.2h1.7v6.9a4 4 0 013.7-2.1c1.3 0 2.4.4 3.1 1.4.8 1 1.2 2.2 1.2 3.8 0 1.7-.4 3.1-1.3 4.2-.8 1-2 1.6-3.5 1.6-1.4 0-2.4-.6-3.1-1.8v1.5h-1.8z"/>
    <text x="503.7" y="489.5" fill-opacity="0" font-family="Arial,Arial_MSFontService,sans-serif" font-size="20.5">
      Object
    </text>
    <path fill="#107C10" d="M648 462h141v34H648z"/>
    <path fill="url(#c)" fill-rule="evenodd" d="M728.7 477.8c-.8 0-1.4.3-2 .8-.5.6-.9 1.3-1 2.3h5.7c0-1-.3-1.8-.7-2.3-.5-.6-1.1-.8-2-.8zm-11.7 0c-1 0-1.9.4-2.5 1.1a5 5 0 00-.8 3.1c0 1.2.2 2.2.8 2.9.6.7 1.3 1 2.3 1 1 0 1.7-.3 2.3-1 .5-.7.8-1.5.8-2.5v-1.6a3 3 0 00-.8-2.1c-.6-.6-1.3-1-2.1-1zm17.4-1.2h2l2 3.6.4.8 2.7-4.4h1.8l-3.5 5.3 3.5 5.2h-2l-2-3.4-.5-.8-.5.8-2.2 3.4h-1.9l3.6-5.1zm-5.6-.2a4 4 0 013.2 1.3c.7.9 1 2.1 1 3.7v.9h-7.3c0 1.1.3 2 1 2.7.5.6 1.3 1 2.4 1 1.2 0 2.3-.4 3.3-1.2v1.6c-1 .6-2.2 1-3.7 1s-2.7-.5-3.5-1.5c-.8-1-1.3-2.3-1.3-4 0-1.6.5-3 1.4-4 1-1 2.1-1.5 3.5-1.5zm-23 0c1.2 0 2 .3 2.7 1a5 5 0 01.9 3.3v6.4h-1.7v-6c0-2.2-.8-3.3-2.5-3.3-.8 0-1.5.3-2 1-.6.6-.9 1.4-.9 2.3v6h-1.7v-10.5h1.7v1.8c.9-1.4 2-2 3.5-2zm-11-4h1.8v14.7h-1.7zm25.1-.8h1.7V487H720v-1.8c-.8 1.4-2 2-3.6 2a4 4 0 01-3.2-1.4c-.8-.9-1.2-2.2-1.2-3.8 0-1.7.5-3.1 1.3-4.2 1-1 2-1.5 3.5-1.5s2.5.5 3.2 1.7z"/>
    <text x="694.9" y="485.4" fill-opacity="0" font-family="Arial,Arial_MSFontService,sans-serif" font-size="15.8">
      Index
    </text>
    <text fill="#1C6982" font-family="Segoe UI,Segoe UI_MSFontService,sans-serif" font-size="27" font-weight="700" transform="translate(615.4 489)">
      ?[<tspan x="190.6" y="0">]</tspan>
    </text>
  </g>
</svg>
